X:29
T:Kinlock Of Kinlock Variations. CAM2.[30]
B:Anon MS#2, early 19thC, Northumbria, Cocks Coll.
Z:Village Music Project 2016 Steve Mansfield
M:6/8
L:1/8
Q:3/8=75
C:"W.M.K."
N:Further variations on page not in scan of mss
K:D
(d/e/) !segno!|| f>ed A<FA | B<GB A<Fd | f>ed A<FA | Bec d2(d/e/) |
f>ed A<FA | B<GB A<Fd | f>ed Bba | gfe d2 :|
|: a | f2a e2a | dcd cea | f2a e2a | ef^g a2a |
f2a e2a | dcd cea | f2f e2e | ef^g ag^g !segno!||
"Var.1"d/e/ | f>ed A/d/F/d/A/d/ | B/d/G/d/B/d/ A/d/F/d/A/d/ | \
f>ed A/d/F/d/A/d/ | B/d/c/e/A/c/ dD (d/e/) |
f>ed A/d/F/d/A/d/ | B/d/G/d/B/d/ A/d/F/d/A/d/ | \
f>ed Bba | (3g/e/g/(3f/d/f/ (3e/c/e/ d2:|

